X:3263
T:Coming Through The Rye,aka. JC.135
M:C
L:1/8
Q:120
S:John Clare,Poet,Helpstone (1793-1864)
R:Air
O:England
A:Northamptonshire
N:Untitled in MS.MR.Bar 1 following the dotted qu's the qu's in the Ms
N:are given here as semi-qu's.
Z:P Headford
K:G
G2|d>edB e>fg>e|d<BA>BG2(d3/2e/f/)|g>fg>a gfed|e>dg>B d3d|!
g>fg>a gfed|e>dc>Be3f|g>fe>d e>fg>{a/g/}e|d<BA>BG2|]
W:Song text exists. See Deacon.


